X:1
T:Harvest Time
T:Harvest Time
T:Lance Brenton Latham
T:Paul Rader, 1921
T:Public Domain Courtesy of the Cyber Hymnal™
T:Public Domain Courtesy of the Cyber Hymnal™
C:Lance Brenton Latham
Z:Public Domain
Z:Courtesy of the Cyber Hymnal™
%%score ( 1 2 ) ( 3 4 )
L:1/8
Q:1/4=115
M:4/4
K:E
V:1 treble 
V:2 treble 
V:3 bass 
V:4 bass 
V:1
 [GB]2 | [EG]2 [EB]2 [EG]3 [DF] | [DF]2 E4 [DF]2 | [EG]2 [FA]2 [GB]2 [Ac]2 | [GB]6 [EG]2 | %5
w: 1.~The|har- vest fields are|bend- ing With|pre- cious rip- ened|grain; More|
w: 2.~The|call must now be|heed- ed, We|can- not say Him|nay; Since|
w: 3.~We‘ll|come a- gain re-|joic- ing, A|reap- er‘s crown to|gain; The|
 [FA]2 [FA]2 [DB]3 [FA] | [EG]2 [GB]4 [EG]2 | [DF]2 [DB]2 [Ec]3 [Fd] | B8 || %9
w: reap- ers now are|need- ed, Ere|Christ comes back a-|gain.|
w: He has died to|save them, We|must go forth to-|day.|
w: Har- vest Home is|com- ing, When|Christ comes back a-|gain.|
"^Refrain" [GB]2 [Ac]2 [GB]4 | [EG]2 [EA]2 [EG]4 | E2 E2 E>F [EG]>[FA] | B8 | [FA]2 [GB]2 [FA]4 | %14
w: |||||
w: Har- vest time!|Har- vest time!|Pre- cious Gos- pel seed is|sown.|Reap- ers go!|
w: |||||
 [DF]2 [EG]2 [DF]4 | [EG]2 [EG]2 [EG]>[DF] [CE]>[EG] | [DB]2 [Ec]2 [CA]2 [DB]2 | %17
w: |||
w: Reap- ers go!|Je- sus, King, must have His|own, His loved ones;|
w: |||
 [EB]2 [Ec]2 [EB]4 | [EG]2 [EA]2 [EG]4 | E2 E2 E>[EF] [EG]>[FA] | [GB]6 [Ac]2 | B6 [Ac]2 | %22
w: |||||
w: Soon He‘ll come!|Soon He‘ll come!|Come and catch a- way His|bride, His|own! His|
w: |||||
 B6 ([Ac]2 | e8-) | [Ge]6 |] %25
w: |||
w: own! His|||
w: |||
V:2
 x2 | x8 | x2 E4 x2 | x8 | x8 | x8 | x8 | x8 | (D4 A4) || x8 | x8 | E2 E2 E2 x2 | (G2 G2 G4) | x8 | %14
 x8 | x8 | x8 | x8 | x8 | E2 E2 E2 x2 | x8 | G2 G2 G2 x2 | G2 G2 G2 x2 | G4 A4 | x6 |] %25
V:3
 [E,E]2 | [E,B,]2 [E,G,]2 [B,,B,]3 [B,,A,] | [B,,A,]2 [E,G,]4 [B,,B,]2 | %3
w: ~|~ ~ ~ ~|~ ~ ~|
 [E,B,]2 [E,B,]2 [E,E]2 [E,E]2 | [E,E]6 [E,B,]2 | [B,,B,]2 [B,,B,]2 [B,,F,]3 [B,,B,] | %6
w: ~ ~ ~ ~|~ ~|~ ~ ~ ~|
 [E,B,]2 [E,E]4 [E,B,]2 | [F,B,]2 [F,B,]2 [F,^A,]3 [F,A,] | (B,4 D4) || %9
w: ~ ~ ~|~ ~ ~ ~|~ *|
 [E,E]2 [E,E]2 [E,E]2 [E,E]2 | [E,B,]2 [E,C]2 [E,B,]4 | [E,G,]2 [E,G,]2 G,>A, [E,B,]2 | %12
w: Pre- cious Gos- pel|seed is sown.|~ ~ ~ ~ ~|
 [E,E]2 [E,E]2 [E,E]4 | [B,,D]2 [B,,D]2 [B,,D]4 | [B,,B,]2 [B,,B,]2 [B,,B,]4 | %15
w: ~ ~ ~|~ ~ ~|~ ~ ~|
 [E,B,]2 [E,B,]2 [C,^A,]>[C,A,] [F,A,]>[F,A,] | [B,,B,]2 [B,,A,]2 [B,,F,]2 [B,,A,]2 | %17
w: ~ ~ ~ ~ ~ ~|~ ~ ~ ~|
 [E,G,]2 [E,A,]2 [E,G,]4 | [E,B,]2 [E,C]2 [E,B,]4 | [E,G,]2 [E,G,]2 [E,G,]>[E,A,] [E,B,]>[E,B,] | %20
w: ~ ~ ~|~ ~ ~|~ ~ ~ ~ ~ ~|
 [E,E]6 z2 | z2 [E,E]2 [E,E]2 z2 | z2 [E,E]2 [E,E]2 [A,E]2 | (E2 B,2) [A,,A,C]4 | [E,B,]6 |] %25
w: His|own! His|own! ~ ~|His * own!||
V:4
 x2 | x8 | x8 | x8 | x8 | x8 | x8 | x8 | B,,8 || x8 | x8 | x4 E,2 x2 | x8 | x8 | x8 | x8 | x8 | %17
 x8 | x8 | x8 | x8 | x8 | x8 | E,4 x4 | x6 |] %25

